X: 12
T: Kinlock of Kinlock variations
T: Blow the wind southerly
T: Blaw the wind sutherly
C: W.M.K.
R: jig
M: 6/8
L: 1/8
Z: 2010 John Chambers <jc:trillian.mit.edu>
B: Anonymous manuscript tune book (1800-1840) p.74-75
F: http://www.asaplive.com/archive/browse_by_collection.asp
N: The asaplive.com web site is complex, and links to its files don't usually work.
K: D
(e/f/) !Segno!|:\
f>ed A<FA | B<GB A<Fd | f>ed A<FA | Bec d2 (de) |\
f>ed A<FA | B<GB A<Fd | f>ed Bba | gfe d2 :|
|: a |\
f2a e2a | dcd cea | f2ae2a | ef^g a2a |\
f2a e2a | dcd cea | f2f e2e | ef^g ag=g !Segno!:|
L:1/16
"Var.1"de |\
f3ed2 AdFdAd | BdGdBd AdFdAd | f3ed2 AdFdAd | BdceAc d2D2 (de) |
f3ed2 AdFdAd | BdGdBd AdFdAd | f3ed2 B2b2g2 |((3geg)((3fdf) ((3ece) d4 :|
ag |\
fadafa eacaea | dacaB^g  a2A2 (a=g) | fadafa eacaea | ^gbegbg a4 (a=g) |
fadafa eacaea | dacaB^g a2A2 (a=g) | fadafa e4 e2 | e2f2^g2 a2^g2=g2 !Segno!|]
"Air"f3ed2 AF3A2 | BG3B2 AF3A2 | f3ed2 AF3A2 | B2B2c2 d4 (de) |\
f3ed2 AF3A2 | BG3B2 AF3 (de) | f3ed2 B2b2a2 | ((3geg) ((3fdf) ((3ece) d4 H|]


%%sep 5 1 500

